X:35
T:Banks of The Nith, The
C:Joe Buchanan's Scottish Tome - Page 061.2
I:061 2
R:Hornpipe
Z:Carl Allison
L:1/8
M:4/4
K:G
"D7"B,C | "G"D2 "G7"BA "C"G2 FE |"G" D3 "D7"C "G"B,2 "G7"D2 | "C"E2 cB "Am"A2 GE |"D7" F3 E DCB,C |
| "G"D2 "G7"BA "C"G2 FE |"G" D3 "D7"C "G"B,2 "G7"D2 | "C"EA"A7"GE F"D7"DBA | "G"G2 "C"G>A "G"G2 :|
FG |"Am" A3 G F"D7"DGA |"G" B3 "B7"A "Em"G2 "G7"AB | "C"c2 "B7"BA "Em"G2 FG | "A7"A>GFE "Am"DC"D7"B,C |
|"G" D2 B"G7"A "C"G2 FE | "G"D3 "D7"C "G"B,2 "G7"D2 |"C" EAG"A7"E "D7"FDBA |"G" G2 "C"G>A "G"G2 :|
